icons/plexis/48/QtAV.svg

<svg viewBox="0 0 48 48" xmlns="http://www.w3.org/2000/svg" xmlns:xlink="http://www.w3.org/1999/xlink">
  <linearGradient id="a" gradientTransform="matrix(0 -1 1 0 -.0000015 47.999998)" gradientUnits="userSpaceOnUse" x1="1" x2="47">
    <stop offset="0" stop-color="#1ec01e"/>
    <stop offset="1" stop-color="#21d121"/>
  </linearGradient>
  <path d="m47 24c0 22.703-.297 23-23 23-22.703 0-23-.297-23-23 0-22.703.297-23 23-23 22.703 0 23 .297 23 23z" fill="url(#a)"/>
  <path d="m25 10c-8.284 0-15 6.716-15 15 0 8.284 6.716 15 15 15 8.284 0 15-6.716 15-15 0-8.284-6.716-15-15-15m-4 7l12 8-12 8z" opacity=".1"/>
  <path d="m24 9c-8.284 0-15 6.716-15 15 0 8.284 6.716 15 15 15 8.284 0 15-6.716 15-15 0-8.284-6.716-15-15-15m-4 7l12 8-12 8z" fill="#f9f9f9"/>
</svg>

<svg xmlns="http://www.w3.org/2000/svg" viewBox="0 0 48 48">
 <defs>
  <linearGradient id="linearGradient3764" x1="1" x2="47" gradientUnits="userSpaceOnUse" gradientTransform="matrix(0,-1,1,0,-1.5e-6,47.999998)">
   <stop style="stop-color:#1ec01e;stop-opacity:1"/>
   <stop offset="1" style="stop-color:#21d121;stop-opacity:1"/>
  </linearGradient>
 </defs>
 <g>
  
  
  
 </g>
 <g>
  <path d="m 47,24 C 47,46.703 46.703,47 24,47 1.297,47 1,46.703 1,24 1,1.297 1.297,1 24,1 46.703,1 47,1.297 47,24 z" style="fill:url(#linearGradient3764);fill-opacity:1"/>
 </g>
 <path d="m 25 10 c -8.284 0 -15 6.716 -15 15 0 8.284 6.716 15 15 15 8.284 0 15 -6.716 15 -15 0 -8.284 -6.716 -15 -15 -15 m -4 7 12 8 -12 8 z" style="fill:#000;opacity:0.1;fill-opacity:1;stroke:none"/>
 <path d="M 24,9 C 15.716,9 9,15.716 9,24 9,32.284 15.716,39 24,39 32.284,39 39,32.284 39,24 39,15.716 32.284,9 24,9 m -4,7 12,8 -12,8 z" style="fill:#f9f9f9;opacity:1;fill-opacity:1;stroke:none"/>
 <g>
  <g>
   <g transform="translate(1,1)">
    <g style="opacity:0.1">
     <!-- color: #7dc06d -->
    </g>
   </g>
  </g>
 </g>
 <g transform="translate(-1,0)">
  <g>
   <!-- color: #7dc06d -->
  </g>
 </g>
 <g>
  
 </g>
</svg>
